svg/emoji_u1f9dd_200d_2640.svg

<svg width="128" height="128" xmlns="http://www.w3.org/2000/svg" xmlns:xlink="http://www.w3.org/1999/xlink"><defs><path id="a" d="M4 4h120v120H4z"/></defs><clipPath id="b"><use xlink:href="#a" overflow="visible"/></clipPath><g clip-path="url(#b)"><path d="M47.02 119.76s-6.8-.35-10.21-5.09c-7.37-10.23-11.42-35.81-11.42-72.02 0-1.66.26-16.41 10.66-26.83C42.8 9.05 52.4 5.62 64.57 5.62c12.08 0 21.52 3.38 28.05 10.04 9.82 10.02 10.04 24.16 9.99 26.89 0 36.31-4.06 61.89-11.42 72.12-3.3 4.59-9.79 5.06-10.25 5.09L64 119.73l-16.98.03z" fill="#e8e8e8"/><path d="M64.57 7.12c11.66 0 20.74 3.23 26.98 9.59 9.6 9.8 9.59 24.2 9.56 25.81v.12c0 35.9-3.96 61.17-11.14 71.15-2.84 3.94-8.55 4.43-9.08 4.46l-16.9-.03-16.88.03c-.58-.04-6.25-.54-9.08-4.46-7.18-9.98-11.14-35.24-11.14-71.17 0-.63.08-15.58 10.22-25.75 6.46-6.46 15.7-9.75 27.46-9.75m0-3c-41.01 0-40.68 37.92-40.68 38.52 0 24.56 1.88 59.25 11.71 72.9 3.9 5.41 11.43 5.71 11.43 5.71l16.97-.02 16.97.03s7.53-.3 11.43-5.71c9.83-13.65 11.71-48.34 11.71-72.9-.01-.61 1.47-38.53-39.54-38.53z" fill="#b0b0b0"/></g><g clip-path="url(#b)"><linearGradient id="c" gradientUnits="userSpaceOnUse" x1="64" x2="64" y1="97.5" y2="130.5"><stop offset="0" stop-color="#651fff"/><stop offset=".705" stop-color="#5914f2"/><stop offset="1" stop-color="#530eeb"/></linearGradient><path d="M13.5 130.5v-9.51c0-17.29 27.21-23.46 50.5-23.49h.14c13.39 0 25.82 2.15 35.01 6.05 7 2.98 15.35 8.42 15.35 17.44v9.51h-101z" fill="url(#c)"/><path d="M64.14 99c24.28 0 48.86 7.55 48.86 21.99V129H15v-8.01c0-6.95 4.88-12.47 14.52-16.42C38.26 100.99 50.51 99.02 64 99h.14m0-3H64c-25.65.03-52 7.1-52 24.99V132h104v-11.01C116 104.13 89.9 96 64.14 96z" fill="#4a00ed"/></g><g clip-path="url(#b)"><path d="M63.17 107.23c-4 0-7.26-3.22-7.26-7.17v-8.98h16.16v8.98c0 3.96-3.26 7.17-7.26 7.17h-1.64z" fill="#e59600"/><path d="M71.08 92.08v7.98c0 3.4-2.81 6.17-6.26 6.17h-1.65c-3.45 0-6.26-2.77-6.26-6.17v-7.98h14.17m2-2H54.92v9.98c0 4.51 3.7 8.17 8.26 8.17h1.65c4.56 0 8.26-3.66 8.26-8.17v-9.98h-.01z" fill="#d18100"/></g><g clip-path="url(#b)"><path d="M39.5 72.07c-2.66-.6-9.53-2.96-14.11-11.86-2.94-5.71-3.66-15.82-3.83-19.92L39.5 51v21.07z" fill="#e59600"/><path d="M22.65 42.11l15.85 9.45v19.19c-3-.95-8.43-3.63-12.22-11.01-2.48-4.8-3.33-12.94-3.63-17.63M20.5 38.5s.12 14.62 4 22.17c6 11.67 16 12.59 16 12.59V50.43l-20-11.93z" fill="#d18100"/><g><path d="M88.5 51l17.95-10.71c-.18 4.1-.9 14.21-3.83 19.92-4.54 8.82-11.45 11.23-14.11 11.85V51z" fill="#e59600"/><path d="M105.35 42.11c-.29 4.69-1.15 12.82-3.63 17.64-3.8 7.38-9.23 10.06-12.22 11.01V51.57l15.85-9.46m2.15-3.61l-20 11.93v22.82s10-.92 16-12.59c3.88-7.54 4-22.16 4-22.16z" fill="#d18100"/></g></g><g clip-path="url(#b)"><linearGradient id="d" gradientUnits="userSpaceOnUse" x1="64" x2="64" y1="94.708" y2="17.885"><stop offset="0" stop-color="#ffb300"/><stop offset=".102" stop-color="#ffb809"/><stop offset=".371" stop-color="#ffc21a"/><stop offset=".659" stop-color="#ffc825"/><stop offset="1" stop-color="#ffca28"/></linearGradient><path d="M64 95.27c-2.3 0-4.91-.5-7.56-1.43C45.1 89.83 31.87 77.5 31.87 55.95c0-28.72 17.31-38.91 32.13-38.91s32.13 10.19 32.13 38.91c0 21.58-13.26 33.9-24.61 37.9-2.63.93-5.23 1.42-7.52 1.42z" fill="url(#d)"/><path d="M64 18.04c8.41 0 16.06 3.25 21.55 9.15 6.27 6.73 9.58 16.68 9.58 28.77 0 21.06-12.9 33.07-23.94 36.96-2.53.89-5.01 1.36-7.19 1.36-2.19 0-4.69-.48-7.23-1.38-11.03-3.9-23.9-15.92-23.9-36.94 0-12.09 3.31-22.03 9.58-28.77 5.49-5.9 13.14-9.15 21.55-9.15m0-2c-17.2 0-33.13 12.79-33.13 39.91 0 21.79 13.49 34.67 25.23 38.83 2.8.99 5.5 1.49 7.9 1.49 2.38 0 5.07-.49 7.85-1.47 11.76-4.14 25.28-17.03 25.28-38.84 0-27.13-15.93-39.92-33.13-39.92z" fill="#ed9e00"/><g><defs><path id="e" d="M30.41 88.85l-1.5-51.44c0-16.95 15.78-29.85 32.73-29.85h4.93c16.95 0 32.54 12.9 32.54 29.85l-1.5 51.18-67.2.26z"/></defs><clipPath id="f"><use xlink:href="#e" overflow="visible"/></clipPath><g clip-path="url(#f)"><radialGradient id="g" cx="145.384" cy="-24.542" gradientTransform="matrix(.796 0 0 .796 -51.73 19.115)" gradientUnits="userSpaceOnUse" r="48.206"><stop offset="0" stop-color="#fff"/><stop offset=".436" stop-color="#f8f8f8"/><stop offset=".995" stop-color="#e8e8e8"/></radialGradient><path d="M101.89 42.65s1.02-35.57-37.81-35.57-37.97 35.57-37.97 35.57.33 45.48 3.2 51.39 7.2 5.71 7.2 5.71-2.03-26.54-2.26-39.04c-.06-2.92-.94-13.73 5.16-15.09 22.36-5.02 35.01-16.89 35.01-16.89C77.71 35.92 88 42.92 91.69 45.59c3.03 2.19 2.61 11.2 2.55 15.03l-3.05 39.06s4.68.37 7.65-5.64c2.96-6.02 3.05-51.39 3.05-51.39z" fill="url(#g)"/></g></g><g><path d="M67.81 68.05c-.1-.04-.21-.07-.32-.08H60.5c-.11.01-.21.04-.32.08-.63.26-.98.91-.68 1.61.3.7 1.69 2.66 4.49 2.66 2.8 0 4.19-1.96 4.49-2.66.31-.69-.03-1.35-.67-1.61z" fill="#e59600"/><ellipse cx="47.75" cy="58.87" rx="4.87" ry="5.04" fill="#404040"/><ellipse cx="80.25" cy="58.87" rx="4.87" ry="5.04" fill="#404040"/><path d="M54.98 49.82c-.93-1.23-3.07-3.01-7.23-3.01s-6.31 1.79-7.23 3.01c-.41.54-.31 1.17-.02 1.55.26.35 1.04.68 1.9.39.86-.29 2.54-1.16 5.35-1.18 2.81.02 4.49.89 5.35 1.18.86.29 1.64-.03 1.9-.39.29-.38.39-1.01-.02-1.55zM87.48 49.82c-.93-1.23-3.07-3.01-7.23-3.01s-6.31 1.79-7.23 3.01c-.41.54-.31 1.17-.02 1.55.26.35 1.04.68 1.9.39.86-.29 2.54-1.16 5.35-1.18 2.81.02 4.49.89 5.35 1.18.86.29 1.64-.03 1.9-.39.29-.38.39-1.01-.02-1.55z" fill="#6d4c41"/><path d="M72.32 76.14c-3.15 1.87-13.46 1.87-16.61 0-1.81-1.07-3.65.57-2.9 2.21.74 1.61 6.37 5.36 11.23 5.36s10.42-3.75 11.16-5.36c.75-1.64-1.08-3.29-2.88-2.21z" fill="#795548"/></g></g><g clip-path="url(#b)"><linearGradient id="h" gradientUnits="userSpaceOnUse" x1="64" x2="64" y1="92.664" y2="111.907"><stop offset="0" stop-color="#651fff"/><stop offset=".705" stop-color="#5914f2"/><stop offset="1" stop-color="#530eeb"/></linearGradient><path d="M63.99 113.67c-13.25 0-21.3-7.53-22.33-8.93V93.82c0-.18.05-.31.09-.39l13.2 2.79c4.13.94 6.96 4.69 7.55 10.03.08.76.73 1.33 1.49 1.33s1.41-.58 1.49-1.33c.6-5.37 3.42-9.12 7.57-10.04l13.19-2.78c.04.08.09.21.09.39v10.92c-1.03 1.4-9.08 8.93-22.34 8.93z" fill="url(#h)"/><path d="M43.17 95.26l11.44 2.41c3.5.79 5.9 4.06 6.42 8.74a2.999 2.999 0 0 0 5.96 0c.53-4.77 2.86-7.96 6.37-8.73l11.48-2.42v8.94c-1.68 1.83-9.15 7.97-20.84 7.97-11.68 0-19.15-6.14-20.83-7.97v-8.94m43.15-3.38l-13.59 2.87c-4.5.99-8.02 4.92-8.73 11.34-.71-6.41-4.36-10.34-8.73-11.34l-13.59-2.87c-.83 0-1.51.87-1.51 1.94v11.23c0 1.07 9.18 10.12 23.83 10.12s23.84-9.05 23.84-10.12V93.82c-.01-1.07-.69-1.94-1.52-1.94z" fill="#4a00ed"/></g></svg>

<?xml version="1.0" encoding="UTF-8" standalone="no"?>
<!DOCTYPE svg PUBLIC "-//W3C//DTD SVG 1.1//EN" "http://www.w3.org/Graphics/SVG/1.1/DTD/svg11.dtd">
<svg width="100%" height="100%" viewBox="0 0 128 128" version="1.1" xmlns="http://www.w3.org/2000/svg" xmlns:xlink="http://www.w3.org/1999/xlink" xml:space="preserve" xmlns:serif="http://www.serif.com/" style="fill-rule:evenodd;clip-rule:evenodd;stroke-linejoin:round;stroke-miterlimit:2;">
    <g>
        <path d="M47.02,119.76C47.02,119.76 40.22,119.41 36.81,114.67C29.44,104.44 25.39,78.86 25.39,42.65C25.39,40.99 25.65,26.24 36.05,15.82C42.8,9.05 52.4,5.62 64.57,5.62C76.65,5.62 86.09,9 92.62,15.66C102.44,25.68 102.66,39.82 102.61,42.55C102.61,78.86 98.55,104.44 91.19,114.67C87.89,119.26 81.4,119.73 80.94,119.76L64,119.73L47.02,119.76Z" style="fill:rgb(236,236,236);fill-rule:nonzero;"/>
    </g>
    <g>
        <clipPath id="_clip1">
            <rect x="4" y="4" width="120" height="120"/>
        </clipPath>
        <g clip-path="url(#_clip1)">
            <path d="M13.5,130.5L13.5,120.99C13.5,103.7 40.71,97.53 64,97.5L64.14,97.5C77.53,97.5 89.96,99.65 99.15,103.55C106.15,106.53 114.5,111.97 114.5,120.99L114.5,130.5L13.5,130.5Z" style="fill:rgb(101,31,255);fill-rule:nonzero;"/>
        </g>
    </g>
    <g>
        <path d="M63.17,107.23C59.17,107.23 55.91,104.01 55.91,100.06L55.91,91.08L72.07,91.08L72.07,100.06C72.07,104.02 68.81,107.23 64.81,107.23L63.17,107.23Z" style="fill:rgb(229,150,0);fill-rule:nonzero;"/>
    </g>
    <g>
        <path d="M39.5,72.07C36.84,71.47 29.97,69.11 25.39,60.21C22.45,54.5 21.73,44.39 21.56,40.29L39.5,51L39.5,72.07Z" style="fill:rgb(228,152,0);fill-rule:nonzero;"/>
        <g>
            <path d="M88.5,51L106.45,40.29C106.27,44.39 105.55,54.5 102.62,60.21C98.08,69.03 91.17,71.44 88.51,72.06L88.51,51L88.5,51Z" style="fill:rgb(228,152,0);fill-rule:nonzero;"/>
        </g>
    </g>
    <g>
        <g transform="matrix(0.791581,0,0,0.791581,13.3392,-1.27118)">
            <path d="M63.987,12.969C30.077,12.969 21.22,36.84 21.22,73.77C21.22,112.06 45.83,121.96 64,121.96C81.9,121.96 106.78,112.34 106.78,73.77C106.78,36.83 97.897,12.969 63.987,12.969Z" style="fill:rgb(250,192,27);fill-rule:nonzero;"/>
        </g>
        <g transform="matrix(0.791581,0,0,0.791581,13.3392,-1.27118)">
            <path d="M76.38,100.52L51.62,100.52C50.2,100.52 49.59,101.47 50.53,102.9C51.84,104.9 56.72,108.75 64,108.75C71.28,108.75 76.16,104.9 77.47,102.9C78.41,101.47 77.8,100.52 76.38,100.52Z" style="fill:rgb(81,63,53);fill-rule:nonzero;"/>
        </g>
        <g transform="matrix(0.791581,0,0,0.791581,13.3392,-1.27118)">
            <path d="M69.98,89.99C67.87,90.59 65.69,90.88 64,90.88C62.31,90.88 60.13,90.59 58.02,89.99C57.12,89.73 56.77,90.59 57.09,91.16C57.76,92.34 60.45,94.71 64,94.71C67.55,94.71 70.24,92.34 70.91,91.16C71.24,90.59 70.88,89.74 69.98,89.99Z" style="fill:rgb(228,152,0);fill-rule:nonzero;"/>
        </g>
        <g transform="matrix(0.791581,0,0,0.791581,13.3392,-1.27118)">
            <path d="M49.91,77.19C49.91,81 47.36,84.09 44.2,84.09C41.04,84.09 38.47,81 38.47,77.19C38.47,73.37 41.04,70.28 44.2,70.28C47.36,70.28 49.91,73.37 49.91,77.19M78.08,77.19C78.08,81 80.64,84.09 83.8,84.09C86.95,84.09 89.52,81 89.52,77.19C89.52,73.37 86.95,70.28 83.8,70.28C80.64,70.28 78.08,73.37 78.08,77.19" style="fill:rgb(68,68,68);fill-rule:nonzero;"/>
        </g>
        <g>
            <g>
                <clipPath id="_clip2">
                    <path d="M30.41,88.85L28.91,37.41C28.91,20.46 44.69,7.56 61.64,7.56L66.57,7.56C83.52,7.56 99.11,20.46 99.11,37.41L97.61,88.59L30.41,88.85Z"/>
                </clipPath>
                <g clip-path="url(#_clip2)">
                    <path d="M101.89,42.65C101.89,42.65 102.91,7.08 64.08,7.08C25.25,7.08 26.11,42.65 26.11,42.65C26.11,42.65 26.44,88.13 29.31,94.04C32.18,99.95 36.51,99.75 36.51,99.75C36.51,99.75 34.48,73.21 34.25,60.71C34.19,57.79 33.31,46.98 39.41,45.62C61.77,40.6 74.42,28.73 74.42,28.73C77.71,35.92 88,42.92 91.69,45.59C94.72,47.78 94.3,56.79 94.24,60.62L91.19,99.68C91.19,99.68 95.87,100.05 98.84,94.04C101.8,88.02 101.89,42.65 101.89,42.65Z" style="fill:rgb(236,236,236);fill-rule:nonzero;"/>
                </g>
            </g>
        </g>
    </g>
    <g>
        <path d="M63.99,113.67C50.74,113.67 42.69,106.14 41.66,104.74L41.66,93.82C41.66,93.64 41.71,93.51 41.75,93.43L54.95,96.22C59.08,97.16 61.91,100.91 62.5,106.25C62.58,107.01 63.23,107.58 63.99,107.58C64.75,107.58 65.4,107 65.48,106.25C66.08,100.88 68.9,97.13 73.05,96.21L86.24,93.43C86.28,93.51 86.33,93.64 86.33,93.82L86.33,104.74C85.3,106.14 77.25,113.67 63.99,113.67Z" style="fill:rgb(101,31,255);fill-rule:nonzero;"/>
    </g>
</svg>
